X:1
T:Nynje sily njebjesnyja
T:Nynje sily njebjesnyja
T:Grigorii Lvovsky
C:Grigorii Lvovsky
%%score [ 1 2 3 4 ]
L:1/8
Q:1/4=40
M:4/4
K:Eb
V:1 treble nm="Soprano" snm="S"
V:2 treble nm="Alto" snm="A"
V:3 treble-8 nm="Tenor" snm="T"
V:4 bass nm="Bass" snm="B"
V:1
"^Adagio"!p! G4 F4 | A4 G2 c2 | B4 A2 G2 | (F3 G) A2 B2 | B4 e4 | (d4 c4) | c2 c2 B4 | B8 || %8
w: Ny- nje|si- ly nje-|bje- sny- ja|sna- * * *|mi nje-|vi- *|di- mo slu-|zhat:|
!f! G4 F3- G | A4 G4 |!<(! (c2 B2 A2 G2 | F3 G A2) (B2!<)! | B4) e4- |!>(! d4 c4-!>)! | c4 B4 | %15
w: sje bo _|fho- dit|Tsar, _ _ _|_ _ _ _|* Tsar|_ sla-||
 B8 ||!pp! (G4 F4) | A4 G4 | c2 B2 A2 G2 | (F3 G A2) B2 | B4!<(! e4 | d4!<)! c4 |!>(! c4 B4!>)! | %23
w: vy.|Sje _|zher- tfa|taj- * * *|* * * na-|ja, so-|vjer- she-|na do-|
 B8 |!p! (G2 A2) G2 F2 | E8- |!pp! E8- |!ppp! E4 z4 |"^piú mosso"!mf! !>!G4 F2 F2 | A4 G4 | %30
w: ri-|no- * * sit-|sja.|_||Vje- ro- ju|i lju-|
 !>!c3 B A2 G2 | F2 F-G A2 B2 | !>!B2 BB e4 | d2 d2 c4 | c2 c2 B4 | B8 |!p! G4 F4 | A4- G2 G2 | %38
w: bo- vi- ju pri-|stu- pim, _ da pri-|tsha- stni- tsy zhi-|* zni vje-|tshny- ja bu-|djem.|Al- li-|lu- * jia,|
 (c2 B2 A2) G2 |!<(! (F3 G A2 B2) | B4!<)! e4 | d4 c4- | c4 B4- |!>(! B4- B4 | G2 A2 G2 F2 | E8- | %46
w: al- * * li-|lu- * * *|jia, al-|li- lu-||||jia.|
 E8-!>)! | E4 z4 |] %48
w: _||
V:2
!p! E4 D4 | F4 E2 A2 | (A2 G2) (GF) E2 | E2 D2 E2 B,2- | B,E F2 (E3 F) | F8 | F2 E2 (E2 D)C | %7
w: Ny- nje|si- ly nje-|bje- * sny- * ja|sna- * * *|* * mi nje- *|vi-|di- mo slu- * *|
 D2 F2 E2 D2 ||!f! E4 (D3 E) | F4 E4 |!<(! (A2 G2 F2 E2- | E2 D2 E2 F2!<)! | G2 F2) E3 F- | %13
w: * * * zhat:|sje bo _|fho- dit|Tsar, _ _ _|_ _ _ _|* * Tsar _|
!>(! F4 F4-!>)! | F2 (E4 D)C | D2 F2 E2 D2 ||!pp! (B,2 E4) D2 | (C2 F4) E2 | (A2 G2) F2 E2- | %19
w: _ sla-||* * * vy.|Sje _ _|zher- * tfa|taj- * * *|
 E2 D2 E2 B,2- | B,EFF!<(! E3 F | F4!<)! F4- |!>(! F2 E2 E2 DC!>)! | D2 F2 E2 D2 |!p! (E6 CD | %25
w: |* * na- ja, so- *|vjer- she-|* na do- * *|* * * ri-|no- * *|
 B,2 C2 B,2) A,2 |!pp! [G,B,]8- |!ppp! [G,B,]4 z4 |!mf! !>!E4 D2 D2 | F4 E4 | !>!A3 G F2 E2 | %31
w: * * * sit-|sja.|_|Vje- ro- ju|i lju-|bo- vi- ju pri-|
 E2 D2 E2 F2 | !>!G2 FF E3 F- | F2 F2 F4 | F2 E2 (E2 DC | D2 F2 E2) D2 |!p! E4 D4 | F4 E2 E2 | %38
w: stu- pim, da pri-|tsha- stni- tsy zhi- *|* zni vje-|tshny- ja bu- * *|* * * djem.|Al- li-|lu- * jia,|
 (A2 G2 F2) E2 |!<(! (E2 D2 E2) B,2- | B,E F2!<)! (E3 F) | F4 F4- | F2 E4 DC |!>(! (D2 F2 E2 D2 | %44
w: al- * * li-|lu- * * *|* * jia, al- *|li- lu-|||
 E4 E2 CD | B,2 C2 B,2 [A,B,]2) | [G,B,]8-!>)! | [G,B,]4 z4 |] %48
w: ||jia.|_|
V:3
!p! B4 B4 | c4 c2 e2 | e4 c2 B2 | (B4 A2) F2 | G2 B2 (GF)G=A | (B6 =A)G | =A2 A2 F4- | %7
w: Ny- nje|si- ly nje-|bje- sny- ja|sna- * *|* mi nje- * * *|vi- * *|di- mo slu-|
 F2 _A2 G2 B2 ||!f! B4 B4 | c4 c4 |!<(! (e4 c2 B2- | B4 c2 d2!<)! | e2 d2) (GFG=A) | %13
w: * * * zhat:|je bo|fho- dit|Tsar, _ _|_ _ _|* * Tsar _ _ _|
!>(! B4 (B2 =A!>)!G) | =A4 B4 | B2 _A2 G2 B2 ||!pp! B8 | c4 c4 | e4 c2 B2- | B4 A2 F2 | %20
w: _ sla- * *||* * * vy.|Sje|zher- tfa|taj- * *||
 G2 BB!<(! (GFG=A) | B4!<)! (B2 =AG) |!>(! =A4 F4-!>)! | F2 _A2 G2 F2 |!p! (E2 c2 B2 A2 | %25
w: * na- ja, so- * * *|vjer- she- * *|na do-|* * * ri-|no- * * *|
 G2 A2 G2) F2 |!pp! E8- |!ppp! E4 z4 |!mf! !>!B4 B2 B2 | c4 c4 | !>!e3 e c2 B2 | B2 B2 c2 d2 | %32
w: * * * sit-|sja.|_|Vje- ro- ju|i lju-|bo- vi- ju pri-|stu- pim, da pri-|
 !>!e2 dd (GFG=A) | B2 B2 (B2 =AG) | =A2 A2 (F4 | F2 _A2 G2) B2 |!p! B4 B4 | c4- c2 c2 | %38
w: tsha- stni- tsy zhi- * * *|* zni vje- * *|tshny- ja bu-|* * * djem.|Al- li-|lu- * jia,|
 (e4 c2) B2 |!<(! (B4 A2 F2 | G2) B2!<)! (GFG=A) | B4 B2 =AG | =A4 F4- |!>(! (F2 _A2 G2 F2 | %44
w: al- * li-|lu- * *|* jia, al- * * *|li- lu- * *|||
 E2 c2 B2 A2 | G2 A2 G2 F2) | E8-!>)! | E4 z4 |] %48
w: ||jia.|_|
V:4
!p! [E,,E,]4 B,,4 | [F,,F,]4 C,2 A,,2 | [E,,E,]4 F,,2 (G,,A,,) | (B,,4 C,2) D,2 | E,2 D,2 C,4 | %5
w: Ny- nje|si- ly nje-|bje- sny- ja _|sna- * *|* mi nje-|
 (D,C,)D,E, F,4 | F,2 F,2 B,,4 | B,,8 ||!f! (E,2 G,2 B,2) (A,G,) | (F,2 A,2 C2) B,2 | %10
w: * * * * vi-|di- mo slu-|zhat:|sje _ _ bo _|fho- * * dit|
!<(! (A,2 E,2 F,2 G,A, | B,4) z4!<)! | z4 (C,4 |!>(! (D,C,)D,E,) F,4-!>)! | F,4 B,4 | B,,8 || %16
w: Tsar, _ _ _ _|_|Tsar|_ _ _ _ sla-||vy.|
!pp! (([E,,E,]4 B,,4)) | [F,,F,]4 C,4 | A,,2 (E,,2 F,,2) G,,A,, | B,,4 C,2 D,2 | %20
w: Sje _|zher- tfa|taj- * * * *||
 E,2 D,D,!<(! (C,4 | D,)C,D,!<)!E, F,4 |!>(! F,4 B,,4!>)! | B,,8 |!p! E,8 | E,8 |!pp! E,8- | %27
w: * na- ja, so-|* * vjer- * she-|na do-|ri-|no-|sit-|sja.|
!ppp! E,4 z4 |!mf! !>!E,4 B,,2 B,,2 | (F,2 A,2 C2) B,2 | !>!A,3 E, F,2 (G,A,) | B,2 B,2 z4 | %32
w: _|Vje- ro- ju|i _ _ lju-|bo- vi- ju pri- *|stu- pim,|
 z4 C,2 C,2 |"^piú mosso" D,C,D,E, F,2 F,2 | F,2 F,,F,, B,,4 | B,,8 |!p! [E,,E,]4 B,,4 | %37
w: da pri-|tsha- * stni- tsy zhi- zni|vje- tshny- ja bu-|djem.|Al- li-|
 ([F,,F,]2 [A,,F,]2 C,2 B,,2) | (A,,2 E,,2 F,,2) G,,A,, |!<(! B,,4 C,2 D,2 | E,2 D,2!<)! (C,4 | %41
w: lu- * * jia,|al- * * li- *|lu- * *|* jia, al-|
 D,C,D,E,) F,4- | F,4 B,,4- |!>(! B,,8 | E,8 | E,8- | E,8-!>)! | E,4 z4 |] %48
w: * * li- * lu-||||jia.|_||

